packages/astro-components-stencil/src/icons/assignment-turned-in.svg

<svg xmlns="http://www.w3.org/2000/svg" viewBox="0 0 24 24"><g xmlns="http://www.w3.org/2000/svg" id="assignment-turned-in" fill-rule="nonzero">
            <path d="M19 3h-4.18C14.4 1.84 13.3 1 12 1c-1.3 0-2.4.84-2.82 2H5c-1.1 0-2 .9-2 2v14c0 1.1.9 2 2 2h14c1.1 0 2-.9 2-2V5c0-1.1-.9-2-2-2zm-7 0c.55 0 1 .45 1 1s-.45 1-1 1-1-.45-1-1 .45-1 1-1zM9.29 16.29L6.7 13.7a.996.996 0 111.41-1.41L10 14.17l5.88-5.88a.996.996 0 111.41 1.41l-6.59 6.59a.996.996 0 01-1.41 0z"/>
        </g></svg>

<svg width="24" height="24" viewBox="0 0 24 24" fill="none" xmlns="http://www.w3.org/2000/svg">
<path fill-rule="evenodd" clip-rule="evenodd" d="M19 3H14.82C14.4 1.84 13.3 1 12 1C10.7 1 9.6 1.84 9.18 3H5C3.9 3 3 3.9 3 5V19C3 20.1 3.9 21 5 21H19C20.1 21 21 20.1 21 19V5C21 3.9 20.1 3 19 3ZM12 3C12.55 3 13 3.45 13 4C13 4.55 12.55 5 12 5C11.45 5 11 4.55 11 4C11 3.45 11.45 3 12 3ZM6.7 13.7L9.29 16.29C9.68 16.68 10.32 16.68 10.7 16.29L17.29 9.7C17.68 9.31 17.68 8.68 17.29 8.29C16.9 7.9 16.27 7.9 15.88 8.29L10 14.17L8.11 12.29C7.72 11.9 7.09 11.9 6.7 12.29C6.31 12.68 6.31 13.31 6.7 13.7Z" fill="black"/>
</svg>
